public/assets/images/icons/green/move_right/euro.svg

<svg width="16" height="16" xmlns="http://www.w3.org/2000/svg" viewBox="0 0 16 16" shape-rendering="geometricPrecision" fill="#00962d"><defs><mask id="a"><rect fill="#fff" width="100%" height="100%"/><path fill="#000" d="M11.875-1.414l-2.47 2.47 2.035 2.039-2.035 2.037 2.47 2.472 4.51-4.511z"/></mask></defs><path fill="#cb1800" d="M11.875 0l-1.057 1.057 2.035 2.038-2.035 2.037 1.057 1.057 3.095-3.096z"/><g mask="url(#a)"><path d="M8.004 1.011a6.995 6.995 0 1 0 .003 13.99 6.995 6.995 0 0 0-.003-13.99zm0 12.575a5.588 5.588 0 0 1-5.578-5.578 5.587 5.587 0 0 1 5.578-5.582 5.588 5.588 0 0 1 5.58 5.582 5.59 5.59 0 0 1-5.58 5.578z"/><path d="M3.904 8.345h.726s-.023-.2-.023-.353c0-.127.023-.373.023-.373h-.726V6.72h.877a4.115 4.115 0 0 1 3.998-3.006c.62 0 1.158.152 1.158.152l-.363 1.368s-.396-.117-.83-.117c-1.11 0-1.975.62-2.35 1.602h2.911l-.186.9H6.186s-.025.176-.025.352c0 .129.036.374.036.374h2.781l-.175.888H6.465a2.45 2.45 0 0 0 2.338 1.637c.607 0 1.124-.176 1.124-.176l.268 1.379s-.61.223-1.415.223c-1.999 0-3.52-1.25-3.998-3.062h-.878v-.889z"/></g></svg>

<?xml version="1.0"?><!DOCTYPE svg PUBLIC "-//W3C//DTD SVG 1.1//EN" "http://www.w3.org/Graphics/SVG/1.1/DTD/svg11.dtd"><svg width="16px" height="16px" xmlns="http://www.w3.org/2000/svg" viewBox="0 0 16 16" shape-rendering="geometricPrecision" fill="#00962d"><defs><mask id="move_right-path"><rect fill="#fff" width="100%" height="100%"/><polygon points="11.875,-1.414 9.405,1.056 11.44,3.095 9.405,5.132 11.875,7.604 16.385,3.093 " fill="#000"/></mask></defs><polygon points="11.875,0 10.818,1.057 12.853,3.095 10.818,5.132 11.875,6.189 14.97,3.093 " fill="#cb1800"/><g mask="url(#move_right-path)"><path d="M8.004,1.011c-3.862,0-6.993,3.132-6.993,6.997c0.002,3.861,3.131,6.989,6.993,6.991 c3.863-0.002,6.995-3.13,6.995-6.991C14.999,4.143,11.867,1.011,8.004,1.011z M8.004,13.586c-3.08-0.008-5.572-2.499-5.578-5.578 c0.006-3.084,2.498-5.576,5.578-5.582c3.082,0.006,5.573,2.498,5.58,5.582C13.577,11.087,11.085,13.578,8.004,13.586z"/><g><path d="M3.904,8.345H4.63c0,0-0.023-0.2-0.023-0.353c0-0.127,0.023-0.373,0.023-0.373H3.904V6.72h0.877 c0.503-1.755,2.07-3.006,3.998-3.006c0.62,0,1.158,0.152,1.158,0.152L9.574,5.234c0,0-0.396-0.117-0.83-0.117 c-1.11,0-1.975,0.62-2.35,1.602h2.911L9.119,7.619H6.186c0,0-0.025,0.176-0.025,0.352c0,0.129,0.036,0.374,0.036,0.374h2.781 L8.803,9.233H6.465c0.362,0.993,1.263,1.637,2.338,1.637c0.607,0,1.124-0.176,1.124-0.176l0.268,1.379 c0,0-0.61,0.223-1.415,0.223c-1.999,0-3.52-1.25-3.998-3.062H3.904V8.345z"/></g></g></svg>
